X: 38280
T: St. John's, The
R: mazurka
M: 3/4
K: Gmajor
Bd|:b2- bg af|g4 e2|~d2 ^cd ed|c4 Ae|
a2- af ge|f4 e2|1 ~d2 ^cd ed|B4 dg:|2 ~d2 ^cd cA|G4 g>f||
|:e/f/e ce ce|~d2 Bd Bd|~c2 AB c/B/A|Bc d2 g>f|
e/f/e ce ce|~d2 Bd Bd|~c2 AB c/B/A|1 G4 g>f:|2 G4 Bg||

